poi/svg/1508.svg

<?xml version="1.0" encoding="UTF-8" standalone="no"?>
<svg
   xmlns:dc="http://purl.org/dc/elements/1.1/"
   xmlns:cc="http://creativecommons.org/ns#"
   xmlns:rdf="http://www.w3.org/1999/02/22-rdf-syntax-ns#"
   xmlns:svg="http://www.w3.org/2000/svg"
   xmlns="http://www.w3.org/2000/svg"
   xmlns:sodipodi="http://sodipodi.sourceforge.net/DTD/sodipodi-0.dtd"
   xmlns:inkscape="http://www.inkscape.org/namespaces/inkscape"
   inkscape:version="1.0 (4035a4fb49, 2020-05-01)"
   sodipodi:docname="1508.svg"
   id="svg20"
   version="1.2"
   viewBox="0 0 42.519639 42.519639"
   height="14.999999mm"
   width="14.999999mm">
  <metadata
     id="metadata24">
    <rdf:RDF>
      <cc:Work
         rdf:about="">
        <dc:format>image/svg+xml</dc:format>
        <dc:type
           rdf:resource="http://purl.org/dc/dcmitype/StillImage" />
        <dc:title>Qt SVG Document</dc:title>
      </cc:Work>
    </rdf:RDF>
  </metadata>
  <sodipodi:namedview
     inkscape:current-layer="svg20"
     inkscape:window-maximized="0"
     inkscape:window-y="0"
     inkscape:window-x="0"
     inkscape:cy="28.346482"
     inkscape:cx="28.346482"
     inkscape:zoom="5.8410537"
     showgrid="false"
     id="namedview22"
     inkscape:window-height="480"
     inkscape:window-width="1034"
     inkscape:pageshadow="2"
     inkscape:pageopacity="0"
     guidetolerance="10"
     gridtolerance="10"
     objecttolerance="10"
     borderopacity="1"
     bordercolor="#666666"
     pagecolor="#ffffff" />
  <title
     id="title2">Qt SVG Document</title>
  <desc
     id="desc4">Generated with Qt</desc>
  <defs
     id="defs6" />
  <g
     transform="translate(5.25984,5.25984)"
     id="g18"
     stroke-linejoin="bevel"
     stroke-linecap="square"
     fill-rule="evenodd"
     stroke-width="1"
     stroke="#000000"
     fill="none">
    <g
       id="g10"
       font-style="normal"
       font-weight="400"
       font-size="7.8px"
       font-family="'MS Shell Dlg 2'"
       stroke="none"
       fill-opacity="1"
       fill="#4c62ad">
      <path
         id="path8"
         d="M 37.2598,16 C 37.2598,27.7415 27.7415,37.2598 16,37.2598 4.25851,37.2598 -5.25984,27.7415 -5.25984,16 -5.25984,4.25851 4.25851,-5.25984 16,-5.25984 27.7415,-5.25984 37.2598,4.25851 37.2598,16"
         fill-rule="evenodd"
         vector-effect="non-scaling-stroke" />
    </g>
    <g
       id="g14"
       font-style="normal"
       font-weight="400"
       font-size="7.8px"
       font-family="'MS Shell Dlg 2'"
       transform="translate(14.8661,12.5984)"
       stroke="none"
       fill-opacity="0.94902"
       fill="#ffffff">
      <path
         id="path12"
         d="m 10.0273,-6.8501 c 0,-0.12597 0.063,-0.20996 0.189,-0.25195 0.126,-0.04199 0.2625,-0.06299 0.4094,-0.06299 0.147,0 0.2835,0.021 0.4095,0.06299 0.1259,0.04199 0.1749,0.12598 0.1469,0.25195 l -0.7348,22.6128 c 0,0.084 -0.105,0.168 -0.315,0.2519 -0.20994,0.084 -0.37091,0.126 -0.48289,0.126 -0.23795,0 -0.35693,-0.1539 -0.35693,-0.4619 L 10.0273,-4.83447 C 9.15951,-3.51872 8.36865,-2.32894 7.65479,-1.26514 7.0529,-0.355306 6.4895,0.47404 5.9646,1.2229 5.4397,1.97176 5.10026,2.37419 4.94629,2.43018 L 3.66553,3.50098 C 3.2876,3.76693 2.7557,3.95589 2.06982,4.06787 1.49593,4.15186 0.715576,4.16585 -0.27124,4.10986 -1.25806,4.05387 -2.51432,3.82292 -4.04004,3.41699 -5.06185,3.16504 -5.93319,2.99357 -6.65405,2.90259 -7.37492,2.8116 -8.0083,2.80461 -8.5542,2.88159 c -0.5459,0.07699 -1.0463,0.22046 -1.5012,0.43042 -0.4549,0.20996 -0.9273,0.48991 -1.4173,0.83985 -0.7978,0.60188 -1.3052,0.84334 -1.5222,0.72436 -0.2169,-0.11898 -0.2694,-0.38493 -0.1574,-0.79785 0.1119,-0.41292 0.3114,-0.89233 0.5983,-1.43823 0.287,-0.5459 0.5494,-0.94483 0.7874,-1.19678 0.5039,-0.601889 1.0148,-1.112794 1.5327,-1.5327155 0.51792,-0.4199215 1.07781,-0.7803545 1.6797,-1.0812945 0.60189,-0.30095 1.26327,-0.5704 1.98413,-0.80835 0.72087,-0.23796 1.50822,-0.50391 2.36206,-0.79786 0.71387,-0.22395 1.35075,-0.45841 1.91065,-0.70336 0.55989,-0.24496 1.02881,-0.46542 1.406735,-0.66138 0.419922,-0.23796 0.7908529,-0.46891 1.112793,-0.69287 0.195964,-0.05599 0.412923,-0.08399 0.650879,-0.08399 0.195963,0 0.416423,0.014 0.661373,0.042 0.24496,0.02799 0.50741,0.09798 0.78736,0.20996 0.02799,0 0.15747,-0.007 0.38843,-0.021 0.23095,-0.014 0.5249,-0.04199 0.88183,-0.08398 0.35693,-0.042 0.76636,-0.09799 1.22827,-0.16797 0.46192,-0.06999 0.93783,-0.13998 1.42774,-0.20996 L 10.0273,-5.65332 V -6.8501 M -10.4019,3.24902 c 0.056,-0.02799 0.1645,-0.06998 0.3255,-0.12597 0.16095,-0.05599 0.32542,-0.12248 0.49339,-0.19947 0.16797,-0.07698 0.31844,-0.13647 0.45142,-0.17846 0.13297,-0.04199 0.22746,-0.09099 0.28345,-0.14698 -0.40593,0 -0.79436,0 -1.16526,0 -0.371,0 -0.6544,-0.18196 -0.8504,-0.54589 -0.1539,-0.23796 -0.1784,-0.52841 -0.0735,-0.87134 0.105,-0.342938 0.3115,-0.626385 0.6194,-0.850344 -0.084,0 -0.2624,0.143474 -0.5354,0.43042 -0.2729,0.286944 -0.4514,0.472414 -0.5354,0.556394 -0.1959,0.30795 -0.3744,0.59839 -0.5354,0.87134 -0.1609,0.27295 -0.1994,0.5284 -0.1155,0.76636 0.154,0.27995 0.364,0.46191 0.6299,0.5459 0.266,0.08398 0.6019,0 1.0078,-0.25196 M -1.05859,3.08105 C -2.06641,2.87109 -2.85726,2.63664 -3.43115,2.37769 -4.00505,2.11873 -4.38997,1.56234 -4.58594,0.708496 -4.68392,0.106608 -4.64543,-0.467285 -4.47046,-1.01318 c 0.17497,-0.5459 0.67538,-1.06381 1.50122,-1.55371 -0.08398,0 -0.23096,0.03849 -0.44092,0.11547 -0.20996,0.07699 -0.44441,0.16447 -0.70337,0.26246 -0.25895,0.09798 -0.5109,0.18896 -0.75585,0.27294 -0.24496,0.08399 -0.42343,0.13998 -0.53541,0.16797 -0.78385,0.23796 -1.29475,0.64388 -1.53271,1.217777 -0.23796,0.5738928 -0.24495,1.23177 -0.021,1.973633 0.19597,0.48991 0.45842,0.82585 0.78736,1.00781 0.32894,0.18197 0.82934,0.23096 1.50122,0.14697 0.08398,-0.02799 0.30444,0 0.66138,0.08399 0.35693,0.08398 0.74186,0.17847 1.15478,0.28345 0.41292,0.10498 0.79785,0.18546 1.15479,0.24145 0.35693,0.05599 0.57039,0.04199 0.64038,-0.04199 V 3.08105 M 4.04346,2.68213 C 4.53337,2.45817 4.82731,1.92977 4.92529,1.09692 5.02327,0.264079 4.8763,-0.628255 4.48438,-1.58008 4.10645,-2.5179 3.58854,-3.25977 2.93066,-3.80566 2.27279,-4.35156 1.69889,-4.51253 1.20898,-4.28857 0.663086,-4.10661 0.348145,-3.5992 0.26416,-2.76636 0.180176,-1.93351 0.327148,-1.02018 0.705078,-0.0263672 1.09701,0.925456 1.60791,1.66732 2.23779,2.19922 2.86768,2.73112 3.46956,2.89209 4.04346,2.68213 m 5.98384,-7.99951 -7.09664,1.02881 c 0.40593,0.32194 0.78036,0.70336 1.1233,1.14428 0.34293,0.44092 0.61238,0.99732 0.80834,1.66919 0.23796,0.65788 0.33944,1.30176 0.30445,1.931643 C 5.13175,1.08643 5.03027,1.64632 4.8623,2.13623 l 5.165,-7.45361"
         fill-rule="evenodd"
         vector-effect="none" />
    </g>
    <g
       id="g16"
       font-style="normal"
       font-weight="400"
       font-size="7.8px"
       font-family="'MS Shell Dlg 2'"
       stroke="none"
       fill-opacity="1"
       fill="#4c62ad" />
  </g>
</svg>

<?xml version="1.0" encoding="UTF-8" standalone="no"?>
<svg width="11.2889mm" height="11.2889mm"
 viewBox="0 0 32 32"
 xmlns="http://www.w3.org/2000/svg" xmlns:xlink="http://www.w3.org/1999/xlink"  version="1.2" baseProfile="tiny">
<title>Qt SVG Document</title>
<desc>Generated with Qt</desc>
<defs>
</defs>
<g fill="none" stroke="black" stroke-width="1" fill-rule="evenodd" stroke-linecap="square" stroke-linejoin="bevel" >

<g fill="#4c62ad" fill-opacity="1" stroke="none" transform="matrix(1,0,0,1,0,0)"
font-family="MS Shell Dlg 2" font-size="7.8" font-weight="400" font-style="normal" 
>
<path vector-effect="non-scaling-stroke" fill-rule="evenodd" d="M37.2598,16 C37.2598,27.7415 27.7415,37.2598 16,37.2598 C4.25851,37.2598 -5.25984,27.7415 -5.25984,16 C-5.25984,4.25851 4.25851,-5.25984 16,-5.25984 C27.7415,-5.25984 37.2598,4.25851 37.2598,16 "/>
</g>

<g fill="#ffffff" fill-opacity="0.94902" stroke="none" transform="matrix(1,0,0,1,14.8661,12.5984)"
font-family="MS Shell Dlg 2" font-size="7.8" font-weight="400" font-style="normal" 
>
<path vector-effect="none" fill-rule="evenodd" d="M10.0273,-6.8501 C10.0273,-6.97607 10.0903,-7.06006 10.2163,-7.10205 C10.3423,-7.14404 10.4788,-7.16504 10.6257,-7.16504 C10.7727,-7.16504 10.9092,-7.14404 11.0352,-7.10205 C11.1611,-7.06006 11.2101,-6.97607 11.1821,-6.8501 L10.4473,15.7627 C10.4473,15.8467 10.3423,15.9307 10.1323,16.0146 C9.92236,16.0986 9.76139,16.1406 9.64941,16.1406 C9.41146,16.1406 9.29248,15.9867 9.29248,15.6787 L10.0273,-4.83447 C9.15951,-3.51872 8.36865,-2.32894 7.65479,-1.26514 C7.0529,-0.355306 6.4895,0.47404 5.9646,1.2229 C5.4397,1.97176 5.10026,2.37419 4.94629,2.43018 L3.66553,3.50098 C3.2876,3.76693 2.7557,3.95589 2.06982,4.06787 C1.49593,4.15186 0.715576,4.16585 -0.27124,4.10986 C-1.25806,4.05387 -2.51432,3.82292 -4.04004,3.41699 C-5.06185,3.16504 -5.93319,2.99357 -6.65405,2.90259 C-7.37492,2.8116 -8.0083,2.80461 -8.5542,2.88159 C-9.1001,2.95858 -9.6005,3.10205 -10.0554,3.31201 C-10.5103,3.52197 -10.9827,3.80192 -11.4727,4.15186 C-12.2705,4.75374 -12.7779,4.9952 -12.9949,4.87622 C-13.2118,4.75724 -13.2643,4.49129 -13.1523,4.07837 C-13.0404,3.66545 -12.8409,3.18604 -12.554,2.64014 C-12.267,2.09424 -12.0046,1.69531 -11.7666,1.44336 C-11.2627,0.841471 -10.7518,0.330566 -10.2339,-0.0893555 C-9.71598,-0.509277 -9.15609,-0.86971 -8.5542,-1.17065 C-7.95231,-1.4716 -7.29093,-1.74105 -6.57007,-1.979 C-5.8492,-2.21696 -5.06185,-2.48291 -4.20801,-2.77686 C-3.49414,-3.00081 -2.85726,-3.23527 -2.29736,-3.48022 C-1.73747,-3.72518 -1.26855,-3.94564 -0.890625,-4.1416 C-0.470703,-4.37956 -0.0997721,-4.61051 0.222168,-4.83447 C0.418132,-4.89046 0.635091,-4.91846 0.873047,-4.91846 C1.06901,-4.91846 1.28947,-4.90446 1.53442,-4.87646 C1.77938,-4.84847 2.04183,-4.77848 2.32178,-4.6665 C2.34977,-4.6665 2.47925,-4.6735 2.71021,-4.6875 C2.94116,-4.7015 3.23511,-4.72949 3.59204,-4.77148 C3.94897,-4.81348 4.3584,-4.86947 4.82031,-4.93945 C5.28223,-5.00944 5.75814,-5.07943 6.24805,-5.14941 L10.0273,-5.65332 L10.0273,-6.8501 M-10.4019,3.24902 C-10.3459,3.22103 -10.2374,3.17904 -10.0764,3.12305 C-9.91545,3.06706 -9.75098,3.00057 -9.58301,2.92358 C-9.41504,2.8466 -9.26457,2.78711 -9.13159,2.74512 C-8.99862,2.70313 -8.90413,2.65413 -8.84814,2.59814 C-9.25407,2.59814 -9.6425,2.59814 -10.0134,2.59814 C-10.3844,2.59814 -10.6678,2.41618 -10.8638,2.05225 C-11.0177,1.81429 -11.0422,1.52384 -10.9373,1.18091 C-10.8323,0.837972 -10.6258,0.554525 -10.3179,0.330566 C-10.4019,0.330566 -10.5803,0.47404 -10.8533,0.760986 C-11.1262,1.04793 -11.3047,1.2334 -11.3887,1.31738 C-11.5846,1.62533 -11.7631,1.91577 -11.9241,2.18872 C-12.085,2.46167 -12.1235,2.71712 -12.0396,2.95508 C-11.8856,3.23503 -11.6756,3.41699 -11.4097,3.50098 C-11.1437,3.58496 -10.8078,3.50098 -10.4019,3.24902 M-1.05859,3.08105 C-2.06641,2.87109 -2.85726,2.63664 -3.43115,2.37769 C-4.00505,2.11873 -4.38997,1.56234 -4.58594,0.708496 C-4.68392,0.106608 -4.64543,-0.467285 -4.47046,-1.01318 C-4.29549,-1.55908 -3.79508,-2.07699 -2.96924,-2.56689 C-3.05322,-2.56689 -3.2002,-2.5284 -3.41016,-2.45142 C-3.62012,-2.37443 -3.85457,-2.28695 -4.11353,-2.18896 C-4.37248,-2.09098 -4.62443,-2 -4.86938,-1.91602 C-5.11434,-1.83203 -5.29281,-1.77604 -5.40479,-1.74805 C-6.18864,-1.51009 -6.69954,-1.10417 -6.9375,-0.530273 C-7.17546,0.0436198 -7.18245,0.701497 -6.9585,1.44336 C-6.76253,1.93327 -6.50008,2.26921 -6.17114,2.45117 C-5.8422,2.63314 -5.3418,2.68213 -4.66992,2.59814 C-4.58594,2.57015 -4.36548,2.59814 -4.00854,2.68213 C-3.65161,2.76611 -3.26668,2.8606 -2.85376,2.96558 C-2.44084,3.07056 -2.05591,3.15104 -1.69897,3.20703 C-1.34204,3.26302 -1.12858,3.24902 -1.05859,3.16504 L-1.05859,3.08105 M4.04346,2.68213 C4.53337,2.45817 4.82731,1.92977 4.92529,1.09692 C5.02327,0.264079 4.8763,-0.628255 4.48438,-1.58008 C4.10645,-2.5179 3.58854,-3.25977 2.93066,-3.80566 C2.27279,-4.35156 1.69889,-4.51253 1.20898,-4.28857 C0.663086,-4.10661 0.348145,-3.5992 0.26416,-2.76636 C0.180176,-1.93351 0.327148,-1.02018 0.705078,-0.0263672 C1.09701,0.925456 1.60791,1.66732 2.23779,2.19922 C2.86768,2.73112 3.46956,2.89209 4.04346,2.68213 M10.0273,-5.31738 L2.93066,-4.28857 C3.33659,-3.96663 3.71102,-3.58521 4.05396,-3.14429 C4.39689,-2.70337 4.66634,-2.14697 4.8623,-1.4751 C5.10026,-0.81722 5.20174,-0.17334 5.16675,0.456543 C5.13175,1.08643 5.03027,1.64632 4.8623,2.13623 L10.0273,-5.31738"/>
</g>

<g fill="#4c62ad" fill-opacity="1" stroke="none" transform="matrix(1,0,0,1,0,0)"
font-family="MS Shell Dlg 2" font-size="7.8" font-weight="400" font-style="normal" 
>
</g>
</g>
</svg>
